Papirus/22x22/panel/youtube-indicator-dark-sync2.svg

<?xml version="1.0" encoding="UTF-8" standalone="no"?>
<svg xmlns:dc="http://purl.org/dc/elements/1.1/" xmlns:cc="http://creativecommons.org/ns#" xmlns:rdf="http://www.w3.org/1999/02/22-rdf-syntax-ns#" xmlns:svg="http://www.w3.org/2000/svg" xmlns="http://www.w3.org/2000/svg" version="1.1" id="svg4295" viewBox="0 0 21.999999 22" height="22" width="22">
    <metadata id="metadata4300">
        <rdf:RDF>
            <cc:Work rdf:about="">
                <dc:format>
                    image/svg+xml
                </dc:format>
                <dc:type rdf:resource="http://purl.org/dc/dcmitype/StillImage"/>
                <dc:title/>
            </cc:Work>
        </rdf:RDF>
    </metadata>
    <g transform="translate(0,-1030.3622)" id="layer1">
        <path id="path4269" transform="translate(-9.5367432e-7,1030.3622)" d="M 10.998047 4 C 10.998047 4 7.2195379 4.0005531 4.7011719 4.1894531 C 4.3493919 4.2334531 3.5830045 4.2374691 2.8984375 4.9804688 C 2.3588765 5.5468686 2.1835937 6.8320313 2.1835938 6.8320312 C 2.1835938 6.8320312 2.0065013 8.3430156 2.0039062 9.8535156 L 2 12.140625 C 1.9974 13.651225 2.1796875 15.162109 2.1796875 15.162109 C 2.1796875 15.162109 2.3549703 16.447172 2.8945312 17.013672 C 3.5790974 17.757172 4.4783923 17.7346 4.8789062 17.8125 C 6.3186043 17.9557 10.998047 18 10.998047 18 C 10.998047 18 12.209286 17.98496 13.40625 17.960938 C 13.146201 17.357246 13 16.696094 13 16 C 13 13.2505 15.250439 11 18 11 C 18.71006 11 19.384722 11.153819 19.998047 11.423828 L 20 9.8535156 C 20.0026 8.3430156 19.820312 6.8320312 19.820312 6.8320312 C 19.820312 6.8320312 19.645076 5.5468687 19.105469 4.9804688 C 18.421153 4.2369687 17.652545 4.2329531 17.300781 4.1894531 C 14.782505 4.0005531 11.005859 4 11.005859 4 L 10.998047 4 z M 8 7 L 14 11.013672 L 8 15 L 8 7 z " style="display:inline;opacity:0.5;fill:#000000;fill-opacity:1;fill-rule:nonzero;stroke:none;enable-background:new"/>
        <path id="path4140" d="m 19.999998,1042.8981 c -1.913126,-1.1046 -4.359551,-0.449 -5.464094,1.4641 -1.104569,1.9132 -0.44903,4.3595 1.464096,5.4641 1.913126,1.1046 4.359551,0.449 5.464094,-1.4641 1.104569,-1.9132 0.44903,-4.3595 -1.464096,-5.4641 z m -0.499993,0.866 a 3,3 0 0 1 1.098059,4.0981 l -0.866004,-0.5 a 2,2 0 0 0 -0.732049,-2.7321 l 0.499994,-0.866 z m -4.098071,1.0981 0.866004,0.5 a 2,2 0 0 0 0.732049,2.7321 l -0.499994,0.866 a 3,3 0 0 1 -1.098059,-4.0981 z" style="color:#ffffff;opacity:0.5;fill:#000000;fill-opacity:1"/>
    </g>
</svg>

<?xml version="1.0" encoding="UTF-8" standalone="no"?>
<svg id="svg4295" xmlns:rdf="http://www.w3.org/1999/02/22-rdf-syntax-ns#" xmlns="http://www.w3.org/2000/svg" viewBox="0 0 21.999999 22" width="22" version="1.1" xmlns:cc="http://creativecommons.org/ns#" height="22" xmlns:dc="http://purl.org/dc/elements/1.1/">
 <metadata id="metadata4300">
  <rdf:RDF>
   <cc:Work rdf:about="">
    <dc:format>image/svg+xml</dc:format>
    <dc:type rdf:resource="http://purl.org/dc/dcmitype/StillImage"/>
    <dc:title/>
   </cc:Work>
  </rdf:RDF>
 </metadata>
 <g id="layer1" transform="translate(0 -1030.4)">
  <path id="path4269" opacity=".5" style="enable-background:new" d="m10.998 4s-3.7785 0.0006-6.2968 0.1895c-0.3518 0.044-1.1182 0.048-1.8028 0.791-0.5395 0.5664-0.7148 1.8515-0.7148 1.8515s-0.1771 1.511-0.1797 3.0215l-0.0039 2.2875c-0.0026 1.51 0.1797 3.021 0.1797 3.021s0.1753 1.285 0.7148 1.852c0.6846 0.743 1.5839 0.721 1.9844 0.798 1.4397 0.144 6.1191 0.188 6.1191 0.188s1.211-0.015 2.408-0.039c-0.26-0.604-0.406-1.265-0.406-1.961 0-2.75 2.25-5 5-5 0.71 0 1.385 0.154 1.998 0.424l0.002-1.5705c0.003-1.5105-0.18-3.0215-0.18-3.0215s-0.175-1.2851-0.715-1.8515c-0.684-0.7435-1.452-0.7475-1.804-0.791-2.518-0.1889-6.295-0.1895-6.295-0.1895h-0.008zm-2.998 3l6 4.014-6 3.986v-8z" transform="translate(-9.5367e-7 1030.4)"/>
  <path id="path4140" opacity=".5" style="color:#ffffff" d="m20 1042.9c-1.9131-1.1046-4.3596-0.449-5.4641 1.4641-1.1046 1.9132-0.44903 4.3595 1.4641 5.4641s4.3596 0.449 5.4641-1.4641c1.1046-1.9132 0.44903-4.3595-1.4641-5.4641zm-0.49999 0.866a3 3 0 0 1 1.0981 4.0981l-0.866-0.5a2 2 0 0 0 -0.73205 -2.7321l0.49999-0.866zm-4.0981 1.0981 0.866 0.5a2 2 0 0 0 0.73205 2.7321l-0.49999 0.866a3 3 0 0 1 -1.0981 -4.0981z"/>
 </g>
</svg>
